X:118
T:Duke of York’s new March. JJo.118
S:J.Jones MS,1801,N.Shrops.
A:N Shropshire
Z:Neil Brookes 2006
M:4/4
L:1/8
Q:1/4=160
K:C
g>g|e2g>ge2g>g|f2d>dd2f>f|d2f>ff2f>f|e2c>cc2C>E|!
G2E>Gc2G>c|e2c4g>a|{a}g2e>g{g}f2d>f|e4z2C>E|!
G2E>Gc2G>B|e2c4 g/a/b/c’/|g2e>gf2d>f|d2D>DD2::!
e2e>ee2f2|g2ze/f/ gg {a}gf/e/|d2d>dd2e2|f2 zd/e/ ff{g}fe/d/|!
e2g>gg2{a} gf/e/|a2c’>c’c’2 {d’}cb/a/|\
g2g>gg2 {a}gf/e/|.d.d/.d/ .e.e/.e/ .f.f/.f/ .d.d/.d/|!
e.C.E.G .c.G.E.C|.d.d/.d/ .e.e/.e/ .f.f/.f/ .d.d/.d/|eCEG cGEC|!
.d.d/.d/ .e.e/.e/ .f.f/.f/ .d.d/.d/|e2z/G/A/B/ c2c2|c4:|

